dist/svgs/file-ppt.svg

<!-- Generated by IcoMoon.io -->
<svg version="1.1" xmlns="http://www.w3.org/2000/svg" width="24" height="24" viewBox="0 0 24 24">
<title>file-ppt</title>
<path d="M22 0h-20c-0.6 0-1 0.4-1 1v22c0 0.6 0.4 1 1 1h20c0.6 0 1-0.4 1-1v-22c0-0.6-0.4-1-1-1zM21 22h-18v-20h18v20z"></path>
<path d="M9.5 16.9c0.2 0.1 0.3 0.1 0.5 0.1s0.4-0.1 0.5-0.3l6-4c0.2-0.2 0.4-0.5 0.4-0.8s-0.1-0.6-0.4-0.8l-6-4c-0.3-0.2-0.7-0.2-1 0s-0.5 0.5-0.5 0.9v8c0 0.4 0.2 0.7 0.5 0.9zM11 9.9l3.2 2.2-3.2 2.1v-4.3z"></path>
</svg>

<svg xmlns="http://www.w3.org/2000/svg" width="24" height="24"><path d="M22 0H2c-.6 0-1 .4-1 1v22c0 .6.4 1 1 1h20c.6 0 1-.4 1-1V1c0-.6-.4-1-1-1zm-1 22H3V2h18v20z"/><path d="M9.5 16.9c.2.1.3.1.5.1s.4-.1.5-.3l6-4c.2-.2.4-.5.4-.8s-.1-.6-.4-.8l-6-4c-.3-.2-.7-.2-1 0S9 7.6 9 8v8c0 .4.2.7.5.9zm1.5-7l3.2 2.2-3.2 2.1V9.9z"/></svg>
